packages/katcn/src/icons/svg/user.svg

<svg width="24" height="25" viewBox="0 0 24 25" fill="none" xmlns="http://www.w3.org/2000/svg">
<path d="M20.6791 18.3842C19.6769 15.9353 17.7727 14.0985 15.4676 13.1802C16.7705 12.1597 17.5723 10.5271 17.5723 8.7924C17.5723 5.52709 15.0667 2.97607 11.9598 2.97607C8.85296 2.97607 6.34741 5.52709 6.34741 8.69036C6.34741 10.4251 7.14919 12.0577 8.45207 13.0781C6.14697 13.9965 4.24275 15.8332 3.24053 18.2822C2.83964 19.3026 2.93987 20.5271 3.5412 21.4455C4.14253 22.4659 5.24497 22.9761 6.44763 22.9761H17.5723C18.7749 22.9761 19.7772 22.3638 20.4787 21.4455C21.08 20.5271 21.1803 19.4046 20.6791 18.3842ZM8.35185 8.69036C8.35185 6.64954 9.9554 5.01689 11.9598 5.01689C13.9643 5.01689 15.5678 6.64954 15.5678 8.69036C15.5678 10.7312 13.9643 12.3638 11.9598 12.3638C9.9554 12.3638 8.35185 10.7312 8.35185 8.69036ZM18.7749 20.4251C18.4743 20.8332 18.0734 21.1393 17.5723 21.1393H6.34741C5.8463 21.1393 5.44542 20.9353 5.14475 20.4251C4.84408 20.0169 4.84408 19.6087 5.04453 19.2006C6.24719 16.2414 8.95318 14.4046 11.9598 14.4046C14.9665 14.4046 17.6725 16.2414 18.8752 19.0985C19.0756 19.5067 18.9754 20.0169 18.7749 20.4251Z" fill="black"/>
</svg>

<svg xmlns="http://www.w3.org/2000/svg" fill="none" viewBox="0 0 24 25"><path fill="#000" d="M20.68 18.384c-1.003-2.449-2.907-4.286-5.212-5.204 1.302-1.02 2.104-2.653 2.104-4.388 0-3.265-2.505-5.816-5.612-5.816S6.347 5.527 6.347 8.69c0 1.735.802 3.368 2.105 4.388-2.305.918-4.21 2.755-5.211 5.204-.401 1.02-.301 2.245.3 3.163.602 1.02 1.704 1.531 2.907 1.531h11.124c1.203 0 2.205-.612 2.907-1.53.601-.919.701-2.041.2-3.062M8.351 8.69c0-2.04 1.603-3.673 3.608-3.673s3.608 1.633 3.608 3.673-1.604 3.674-3.608 3.674S8.352 10.73 8.352 8.69m10.423 11.735c-.3.408-.702.714-1.203.714H6.347c-.5 0-.902-.204-1.202-.714-.3-.408-.3-.816-.1-1.224 1.202-2.96 3.908-4.796 6.915-4.796 3.006 0 5.712 1.836 6.915 4.694.2.408.1.918-.1 1.326"/></svg>
